!!!SOCIAL_FUNCTION:	game songs
!!!PDT:	1943
!!!OTL: No_68_Gambling_Song_(b).krn
!!!REG: British Columbia
**kern
*staff1
=1-
*clefG2
*k[f#c#]
*M2/4
4r
8.r
16b\
=2
4b\
8a/L
8b/J
=3
4f#/
8e/
8r
=4
2e/
=5
4f#/
8f#/
8r
=6
8f#/L
8e/J
8e/L
8d/J
=7
8f#/L
8e/J
8d/
8r
=8
2B/
=9
4B/
8A/
8r
=10
=
2e/
=11
4f#/
8f#/
8r
=12
8f#/L
8e/J
8e/L
8d/J
=13
8f#/L
8e/J
8d/
8r
=14
2B/
=15
4A/
4r
=16
2b\
=17
4f#/
8e/
8r
=18
4b\
8a/L
8b/J
=19
4f#/
8e/
8r
=20
2d/
=21
4e/
8e/
8r
=22
8f#/L
8e/J
8e/L
8d/J
=23
8f#/L
8e/J
8d/
8r
=24
2B/
=25
4B/
8A/
8r
==:|!
*-
